rospo-icon-theme-classic-common/16x16/apps/com.github.aleksandar-stefanovic.urmsimulator.svg

<svg height="16" width="16" xmlns="http://www.w3.org/2000/svg"><rect fill="#bc5ae7" height="16" rx=".8" transform="matrix(0 -1 -1 0 0 0)" width="16" x="-16" y="-16"/><g fill="none" stroke="#fff" stroke-linecap="round" stroke-width=".5"><path d="m4.7500008 6.25-.0000016 3.2994579c-.0000004.9041161-.6793312 1.2148251-1.2499992 1.2000221-.5348012.0021-1.249977-.284528-1.2499766-1.2000221l.0000016-3.2994579" stroke-linejoin="bevel"/><path d="m8.75 10.741402-1.75-2.0744024m-.7429484-.0170416s2.4929484.2711396 2.4929484-1.1999248c0-1.4710656-2.4929484-1.1999532-2.4929484-1.1999532m.0000588 4.491381v-4.4913218"/><path d="m13.75 10.741461v-4.491461m-3.495732 0 1.799887 2.5 1.695845-2.5m-3.495732 4.491461v-4.491461" stroke-linejoin="round"/></g></svg>

<svg xmlns="http://www.w3.org/2000/svg" width="16" height="16" version="1">
 <rect width="16" height="16" x="-16" y="-16" rx=".8" ry=".8" transform="matrix(0,-1,-1,0,0,0)" style="fill:#bc5ae7"/>
 <path style="fill:none;stroke:#ffffff;stroke-width:0.5;stroke-linecap:round;stroke-linejoin:bevel" d="m 4.7500008,6.25 -1.6e-6,3.2994579 C 4.7499988,10.453574 4.070668,10.764283 3.5,10.74948 2.9651988,10.75158 2.250023,10.464952 2.2500234,9.5494579 L 2.250025,6.25"/>
 <path d="M 8.75,10.741402 7,8.6669996 M 6.2570516,8.649958 c 0,0 2.4929484,0.2711396 2.4929484,-1.1999248 C 8.75,5.9789676 6.2570516,6.25008 6.2570516,6.25008 m 5.88e-5,4.491381 0,-4.4913218" style="fill:none;stroke:#ffffff;stroke-width:0.5;stroke-linecap:round"/>
 <path d="M 13.75,10.741461 13.75,6.25 m -3.495732,0 1.799887,2.5 L 13.75,6.25 m -3.495732,4.491461 0,-4.491461" style="fill:none;stroke:#ffffff;stroke-width:0.5;stroke-linecap:round;stroke-linejoin:round"/>
</svg>
